X:1
T:Rissolverevi pensieri
T:Rissolverevi pensieri
T:Barbara Strozzi
T:Source : Arie a voce sola de diversi auttori---Venetia---A.Vincenti---1656. Editor : André Vierendeels (05/04/16).
T:Notes : Original clefs : C1, F4 Dotted brackets indicate black notes Note values have been halved in  6/4 measures Music collected by Francesco Tonalli
T:©
T:©
T:©
T:©
T:©
C:Barbara Strozzi
Z:©
%%score 1 2
L:1/8
Q:1/4=80
M:4/4
K:F
V:1 treble nm="Soprano" snm="S"
V:2 bass nm="BC" snm="BC"
V:1
 z2 DF EFGA | FDFB GABc | AFcd BAAA | EF GA A4 | z2 cc dc cB | B3 A A2 fc | dB Gc AF DG | %7
w: Ris- sol- ve- re- vi pen-|sie- ri, ris- sol- ve- re- vi pen-|sie- ri di la- sciar- * mi in|li- * ber- * ta|è tropp' as- * pra _|cru- del- ta rad- dop-|piar _ _ _ _ _ _ _|
w: Lu- sin- ghie- ri mie spe-|ran- za, lu- sin- ghie- ri mie spe-|ran- za, il ten- tar _ mi è|va- * ni- * ta|il mio cor _ sof- *|frir non fa vo- stre|per- * * * * * * *|
w: Se tra gl'a- gi d'un bel|col- le, se tra gl'a- gi d'un bel|col- le, vol- go mai _ ra- min-|go _ il _ pie|à far pro- * va _|di mia fe tio fan-|tas _ _ _ _ _ _ _|
 E2 F2- F4- | F2 GA B4 | A2 Ac =Bcde | ^cA=cd BAAA | dF GA A2 cc | dc cB B3 A | A2 fc dB Gc | %14
w: _ no- *|* di si fie-|ri, ris- sol- ve- re- vi pen|sie- ri di le- sciar _ mi in|li- * ber- * ta è trop-|p'as- * pra _ cru- del-|ta, rad- dop- piar _ _ _|
w: * fi- *|* de bal- dan-|ze, lu- sin- ghie- re mie spe-|ran- za, il ten- tar _ mi è|va- * ni- * ta il mio|cor _ sof- * frir non|fa vo- stre per- * * *|
w: ma'o- gnor _|_ s'es- tol- *|le, se tra gl'a- gi d'un bel|vol- to, vol- go mai i ra- min-|go _ il _ pie à far|pro- * va _ di mia|fe tio- fan- tas- * * *|
 AF DG E2 F2 | F4- F2 GA | B4 A2 Ac | =Bcde ^cAfe | gfef fgfe | d8 ::[M:6/4] d2 A2 B2 c4 c2 | %21
w: _ _ _ _ _ no-|di _ di si|fie- ri, ris- sol-|ve- re- vi pen- sie- ri, ris- sol-|ve- re- vi pen- sie- * * *|ri.|E se fia- ma- te|
w: |fi- * de bal-|dan- ze, lu- sin-|ghie- re mie spe- ran- za, lu- sin-|ghie- re mie spe- ran- * * *|za.|Gia sen- za re- pli-|
w: * * * * * ma'o-|gnor _ s'es- *|stol- le, se trà|gl'a- gi d'un bel col- le, se trà|gl'a- gi d'un bel col- * * *|le.|Se fi _ gra- ve|
 B4 B2 A2 c2 c2 | d2 c2 B2 A4 B2 | c2 B3 A G2 F2- G2 | A2 G4 F4 f2 | e6 d6 | c6 B6 | %27
w: ch'al- tr'A- mor, ch'al- tr'A-|mor _ _ _ _|_ _ _ _ io _|bra- * mi strin-|ge- te|mi'al suo|
w: car no- o- vo do-|lo- * * * *||* * re del|pri- mo|col- po'ho'an-|
w: pen- sier l'A- ni- ma'in-|gon- * * * *||* * bra, ahi|ch'il suo|A- mor|
 A2 A2 =B2 c2 A2 z2 | z2 =B2 c2 d2 fe de | c2 =B4 A4 c2 | B6 A6 | G6 F6 | E2 F2 G2 A2 F2 z2 | %33
w: sen ca- ri ca- ri|ca- ri ca- ri _ le- *|ga- * mi, strin-|ge- te|mi'al suo|sen ca- ri ca- ri|
w: cor pi- a ga- to|pi- a ga- to _ il _|co- * re, del|pri- mo|col- po'ho'an-|cor pi- a ga- to|
w: non è che so- gno|che so- gno è _ _ _|con- * bra, ahi|ch'il suo|A- mor|non è che so- gne,|
 z2 A2 B2 c2 dc FG | A2 G4 F4 f2 | e6 d6 | ^c6 d6 | ^c2 d2 e2 f2 d2 z2 | z2 e2 f2 g2 f2 e2 | %39
w: ca- ri ca- ri _ le- *|ga- * mi, strin-|ge- te|mi'al suo|sen ca- ri ca- ri|ca- ri ca- ri le-|
w: pi- a ga- to _ il _|co- * re, del|pri- mo|col- po'ho'an-|cor pi- a ga- to|pi- a ga- to il|
w: che so- gne è _ _ _|om- * bra, del|ch'i suo'A-|mor, _|non è che so- gne|che so- * gne è|
 f2 e4 d6- | d2 e2 f2 g2 f2 e2 | f2 e4 d6 :| %42
w: ga- * mi,|_ ca- ri ca- ri le-|ga- * mi.|
w: co- * re,|_ pi- a ga- to il|co- * re.|
w: om- * bra,|_ che so- * gne è|om- * bra.|
V:2
 D,6 ^C,2 | D,4 E,4 | F,4 G,2 A,2 | B,4 A,2 A,G, | F,4 B,,2 C,2 | D,2 E,2 F,2 A,2 | %6
 B,2 C2 F,2 B,2 | C2 DC DCB,A, | B,A,G,F, CB, CC, | F,4 G,4 | A,2 F,2 G,2 A,2 | B,4 A,2 F,2 | %12
 B,,2 C,2 D,2 E,2 | F,2 A,2 B,2 C2 | F,2 B,2 C2 DC | DCB,A, B,A,G,F, | CB, CC, F,4 | G,4 A,2 DC | %18
 B,A,G,D, A,4 | D,8 ::[M:6/4] D,6 A,2 E,2 F,2 | G,2 D,2 E,2 F,6 | B,2 C4 D2 C2 B,2 | %23
 A,2 B,4 C2 A,2 B,2 | C6 F,6 | C2 B,2 A,2 B,2 A,2 G,2 | A,2 G,2 F,2 G,2 F,2 E,2 | %27
 F,6- F,2 F,2 E,2 | D,2 D,2 E,2 F,2 D,4 | E,6 A,,4 F,2 | G,2 F,2 E,2 F,2 E,2 D,2 | %31
 E,2 D,2 C,2 D,2 C,2 D,2 | A,,2 G,,4 F,,2 F,2 E,2 | D,2 C,2 B,,2 A,,2 B,,4 | C,6 F,6 | %35
 C2 B,2 A,2 B,2 A,2 G,2 | A,2 G,2 F,2 B,2 A,2 B,2 | A,2 G,4 F,2 F,2 G,2 | A,6 B,2 A,2 G,2 | %39
 A,6 D4 C2 | B,2 A,4 B,2 A,2 G,2 | A,6 D,6 :| %42

